src/assets/media/svg/sprite/logout-user.svg

<svg width="24" height="24" viewBox="0 0 24 24" fill="none" xmlns="http://www.w3.org/2000/svg">
<path fill-rule="evenodd" clip-rule="evenodd" d="M17.7071 7.29291L22.4142 12L17.7071 16.7071L16.2929 15.2929L18.5858 13H9V11H18.5858L16.2929 8.70712L17.7071 7.29291Z"/>
<path fill-rule="evenodd" clip-rule="evenodd" d="M3 1H10V3H5V21H10V23H3V1Z" />
</svg>

<svg xmlns="http://www.w3.org/2000/svg" width="24" height="24" fill="none"><path d="M17.707 7.293 22.414 12l-4.707 4.707-1.414-1.414L18.586 13H9v-2h9.586l-2.293-2.293z" clip-rule="evenodd"/><path d="M3 1h7v2H5v18h5v2H3z" clip-rule="evenodd"/></svg>
